X:124011
T:Mairi's Wedding Elementary Setting
C: John Roderick Bannerman (1934)
B:
O:Chris Schooner/Kevin Fraser
Z:Kevin Fraser
Q:1/4=90
K:HP
M:2/4
L:1/8
R:March
U: R = ///
U: r = //
U: V = !accent!
V:M gstem=up stem=down name="Melody"
V:H gstem=up stem=down name="Harmony"
V:C gstem=up stem=down name="C-Harmony"
V:S gstem=up stem=down dyn=up stafflines=1 clef=perc middle=G name="Snare" sname="Snare"
V:B gstem=up stem=down clef=none dyn=up name="Bass"
V:T gstem=up stem=down clef=none dyn=up name="Tenor"
I:MIDI=program 110
%%staff {M S}
[V:M]|: e      |  {g}GA{G}AB   | {g}de {g}f2| {g}ed {g}Bd  | {g}fe {g}f2     | $
w: e      |  hem en hen o | ha e che   | he a ho a  | che e che |
          |  {g}GA{G}AB   | {g}de {g}f2| {g}ed {g}BG  | {g}A2 {G}A2 :| $
w:          him en hen o | ha e che   | he a ho em | hen den :|
	  |: {g}fa {g}a2  | {g}ag f2   | {g}ed {g}Bd  | {g}fe {g}f2     | $
w:         che I li     | li di ve  | he a ho a  |  che e che | 
          [1  {g}fa {g}a2 | {g}ag f2   | {g}ed {g}BG  | {g}A2 {G}A2 :| $
w:         che I li     | li di ve  | he a ho em | hen den :|
	  [2  {g}GA{G}AB  | {g}de {g}f2| {g}ed {g}BG  | {g}A2 {G}A2 || $
w:          him en hen o | ha e che   | he a ho em | hen den ||
W: Chorus:
W:Step we gaily on we go
W:Heel for heel and toe for toe
W:Arm in arm and row on row
W:All for Mairi's wedding.
W:
W:Over hillways up and down
W:Myrtle green and bracken brown
W:Past the shieling through the town
W:All for sake of Mairi.
W:
W:Red her cheeks as rowans are
W:Bright her eye as any star
W:Fairest of them all by far
W:Is my darlin' Mairi.
W:
W:Plenty herring, plenty meal
W:Plenty peat to fill her creel
W:Plenty bonny bairns as weel
W:That's the toast of Mairi.


gstem=up stem=down dyn=up stafflines=1 clef=perc middle=G name="Snare" sname="Snare"X:124012
T:Mairi's Wedding (Bass/Tenor)
O:Kevin Fraser
Z:Kevin Fraser
Q:1/4=90
K:HP
M:2/4
L:1/8
R:March
U: R = ///
U: r = //
U: V = !accent!
V:M gstem=up stem=down name="Melody"
V:H gstem=up stem=down name="Harmony"
V:C gstem=up stem=down name="C-Harmony"
V:S gstem=up stem=down dyn=up stafflines=1 clef=perc middle=G name="Snare" sname="Snare"
V:B gstem=up stem=down clef=none dyn=up name="Bass"
V:T gstem=up stem=down clef=none dyn=up name="Tenor"
I:MIDI=program 110
%%MIDI gracedivider 4
V:B
||         VcA cA | VcA cA | VcA cA | VcA c2 | $
V:B
           VcA cA | VcA cA | VcA cA | VcA c2 | $
V:B
	   Vc2  A2  | Vc2  A2  | Vc2  A2  | Vc2  A2  | $
V:B
       	   Vc2  A2  | Vc2  A2  | Vc2  A2  | Vc2  z2|| $
V:B
           VcA cA | VcA cA | VcA cA | VcA c2 | $
V:B
           VcA cA | VcA cA | VcA cA | VcA c2 | $
V:B
	   Vc2  A2  | Vc2  A2  | Vc2  A2  | Vc2  A2  | $
V:B
       	   Vc2  A2  | Vc2  A2  | Vc2  A2  | Vc2  z2|| $
V:T
||	   Vc2  A2  | Vc2  A2  | Vc2  A2  | Vc2  A2  | $
V:T
       	   Vc2  A2  | Vc2  A2  | Vc2  A2  | Vc2  z2| $
V:T
           VcA cA | VcA cA | VcA cA | VcA c2 | $
V:T
           VcA cA | VcA cA | VcA cA | VcA c2 ||  $
V:T
	   Vc2  A2  | Vc2  A2  | Vc2  A2  | Vc2  A2  |  $
V:T
       	   Vc2  A2  | Vc2  A2  | Vc2  A2  | Vc2  z2|  $
V:T
           VcA cA | VcA cA | VcA cA | VcA c2 |  $
V:T
           VcA cA | VcA cA | VcA cA | VcA c2 || $
W: The Bass and Tenor parts are not written in the same tune as the Pipe and Snare parts 
W: because the part is different on the repeat, and the typesetting program is not smart 
W: enougn to handle that.
T:Mairi's Wedding (Cadet Snare L4)
V:S clef=perc
|: (RA | c){c}A (Rc2 | c){c}A (Rc2 | c){c}A   c/>A/c/>c/     | A{a}c A/>c/A/>A/ |
     x | c{c}A (Rc2 | c){c}A (Rc2 | c/)>A/c    A/>c/A/>A/ | c(RA c)     x:|
|:  A  | (Rc2 c){c}A | (Rc2 c){c}A | c/>A/c/>c/   A{A}c      | A/>c/A/>A/ c{c}A |
      x| (Rc2 c){c}A | (Rc2 c){c}A | c/>A/c    A/>c/A/>A/ | c(RA c)     x:|

